X:1
T:Miserere - Turini
T:#
%%score [ 1 { 2 | 3 } 4 ]
L:1/8
Q:1/4=200
M:none
K:C
V:1 treble nm="S" snm="S"
V:2 treble nm="A" snm="A"
V:3 treble 
V:4 treble-8 nm="T" snm="T"
V:1
"^Miserere""^Gregorio Turini\n(c.1560-c.1600)" c12 c4 | c4 c4 c4 B4 | c8 c8- | c4 c4 c4 c4 | %4
w: Mi- se-|re- re me- i|De- us:|* se- cun- dum|
 c8 B4 B4 | B4 B4 c8 | A4 E4 G8 | G16 ||[Q:1/4=130][Q:1/4=130][Q:1/4=130] z38 | z20 || %10
w: ma- gnam mi-|se- ri- cor-|di- am tu-|am.|||
[Q:1/4=200][Q:1/4=200][Q:1/4=200] c8 c4 c4 | B4 B4 c8 | c4 c4 d4 d4 | c4 B4 c8 | c8 A8 | %15
w: Am- pli- us|la- va me|ab i- ni- qui-|ta- te me-|a: et|
 A4 A4 A4 G4 | A8 A8 | G4 G4 G16 ||[Q:1/4=130][Q:1/4=130][Q:1/4=130] z32 | z26 || %20
w: a pec- ca- to|me- o|mun- da me.|||
[M:4/2][Q:1/4=200][Q:1/4=200][Q:1/4=200] c12 c4 | _B8 A4 A4 | c8 c8 | z8 z4 c4 | B4 A4 G4 F2 F2 | %25
w: Ti- bi|so- li pec-|ca- vi,|et|ma- lum co- ram te|
 E8 E4 E4- | E2 E2 F2 F2 E8 | F8 F4 c4 | _B8 B4 =B4 | c8 c4 F4 | E8 F4 A4 | G4 ^F4 G8 | G16 || %33
w: fe- ci: ut|* ju- sti- fi- ce-|ris in ser-|mo- ni- bus|tu- is, et|vin- cas cum|ju- di- ca-|ris.|
[Q:1/4=130][Q:1/4=130][Q:1/4=130] z32 | z28 ||[M:4/2][Q:1/4=200][Q:1/4=200][Q:1/4=200] A12 A4 | %36
w: ||Ec- ce|
 d8 c4 c4- | c2 c2 c4 c4 A4- | A4 c4 _B8 | A4 A4 _B4 A4 | G4 F4 G4 A4 | G4 F4 _B8 | _B4 F4 G8 | %43
w: e- nim ve\-|* ri- ta- tem di\-|* le- xi-|sti: in- cer- ta|et oc- cul- ta|sa- pi- en-|ti- ae tu-|
 C8 D8 | ^C4 D4 E4 F2 (F2- | F2 E2 D4) E16 ||[M:4/2][Q:1/4=130][Q:1/4=130][Q:1/4=130] z24 | z28 || %48
w: ae ma-|ni- fe- sta- sti mi\-|* * * hi.|||
[M:4/2][Q:1/4=200][Q:1/4=200][Q:1/4=200] A8 G8- | G4 E4 E8 | z4 c8 c4 | _B4 A4 G4 c4 | c8 A8- | %53
w: Au- di\-|* tu- i|me- o|da- bis gau- di-|um et|
 A4 A4 A4 A4 | A8 G8 | G4 G4 F8 | G8 A8 | A4 A4 G4 G4 | G8 G16 || %59
w: * lae- ti- ti-|um: et|ex- ul- ta-|bunt os-|sa hu- mi- li-|a- ta.|
[Q:1/4=130][Q:1/4=130][Q:1/4=130] z30 | z26 ||[M:4/2][Q:1/4=200][Q:1/4=200][Q:1/4=200] c8 c4 c4 | %62
w: ||Cor mun- dum|
 c8 d4 (e4- | e2 dc) d4 e8 | e4 c8 c4 | _B4 A4 c8 | c4 c8 _B4 | A4 A8 A4 | A8 _B4 A4 | G8 A4 G4- | %70
w: cre- a in|* * * me De-|us: et spi-|ri- tum re-|ctum in- no-|va in vi-|sce- ri- bus|me- is, in|
 G4 F4 F4 E4 | F2 (F4 E2 D3 C D4) | E16 ||[Q:1/4=130][Q:1/4=130][Q:1/4=130] z26 | z30 || %75
w: * vi- sce- ri-|bus me\- * * * *|is.|||
[M:4/2][Q:1/4=200][Q:1/4=200][Q:1/4=200] A12 A4 | c8 _B4 B4 | A6 A2 A4 A4 | d4 (G3 A _B4) F4 | %79
w: Red- de|mi- hi lae-|ti- ti- am sa-|lu- ta\- * * ris|
 G8 C4 D4- | D4 F4 A4 F4 | G4 E4 F8 | F4 E4 D6 D2 | E16 ||[Q:1/4=130][Q:1/4=130][Q:1/4=130] z22 | %85
w: tu- i: et|* spi- ri- tu|prin- ci- pa-|li con- fir- ma|me.||
 z22 ||[M:4/2][Q:1/4=200][Q:1/4=200][Q:1/4=200] A8 F8 | A8 A4 A4- | A4 A4 e4 d4 | e12 d2 A2 | %90
w: |Li- be-|ra me de|* san- gui- ni-|bus De- us,|
 c8 c4 _B4 | A4 G4 A8 | A8 z8 | z4 d6 c2 c4 | _B8 A8 | A4 A4 ^G4 A4 | B4 d6 c2 (c4- | %97
w: De- us sa-|lu- tis me-|ae:|et e- xul-|ta- bit|lin- ga me- a|ju- sti- ti- am|
 c2 BA) B4 c16 ||[Q:1/4=130][Q:1/4=130][Q:1/4=130] z26 | z28 || %100
w: * * * tu- am.|||
[M:4/2][Q:1/4=200][Q:1/4=200][Q:1/4=200] c12 B4 | A6 A2 A4 B4 | c8 c4 c4- | c4 B4 c4 c4 | %104
w: Quo- ni-|am si- vo- lu-|is- ses sa\-|* cri- fi- ci-|
 _B4 B4 A8 | A8 z8 | z4 d6 d2 ^c4 | d2 d2 _B4 c2 c2 c2 C2 | G6 G2 G16 || %109
w: um, de- dis-|sem|u- ti- que:|ho- lo- cau- stis non de- le-|cta- be- ris.|
[Q:1/4=130][Q:1/4=130][Q:1/4=130] z32 | z36 || %111
w: ||
[M:4/2][Q:1/4=200][Q:1/4=200][Q:1/4=200] G8 (_B3 A G4) | A4 c4 B2 B2 (e4- | e2 dc) d2 d2 e8- | %114
w: Be- ni\- * *|gne, be- ni- gne fac|* * * Do- mi- ne|
 e4 c4 c4 c4 | _B4 A4 B4 B4 | c8 c8 | c8 c8 | z8 A8- | A4 B4 c4 c4 | d8 ^c8 | c8 A4 _B4 | %122
w: * in bo- na|vo- lun- ta- te|tu- a|Si- on:|ut|* ae- di- fi-|cen- tur|mu- ri Je-|
 A4 A4 A8 | A8 A4 E4 | D4 G4 G16 ||[Q:1/4=130][Q:1/4=130][Q:1/4=130] z52 | z30 |] %127
w: ru- sa- lem,|mu- ri Je-|ru- sa- lem.|||
V:2
 A12 A4 | A4 A4 G4 F4 | G8 A8- | A4 A4 A4 (G4- | G2 ^FE) F4 G4 G4 | G4 G4 G8 | F4 C4 D8 | E16 || %8
w: Mi- se-|re- re me- i|De- us:|* se- cun- dum|* * * ma- gnam mi-|se- ri- cor-|di- am tu-|am.|
 z38 | z20 || E8 E4 ^F4 | G4 G4 A8 | A4 G4 _B4 G4 | E4 D4 (E2 F4 E2) | F8 C8 | D4 F4 E4 D4 | %16
w: ||Am- pli- us|la- va me|ab i- ni- qui-|ta- te me\- * *|a: et|a pec- ca- to|
 E8 (F6 E2 | D2 E2) D3 D E16 || z32 | z26 ||[M:4/2] G12 A4 | G8 E4 F4 | G8 A8 | c2 B4 A4 G2 A4 | %24
w: me- o *|* * mun- da me.|||Ti- bi|so- li pec-|ca- vi,|et ma- lum co- ram|
 D4 F4 E4 A4- | A4 A4 A4 A4 | A8 A8 | A12 A4 | F8 F4 G4 | G8 A4 z2 D2 | ^C8 D4 F4 | D4 C4 D8 | %32
w: te fe- ci: ut|* ju- sti- fi-|ce- ris|in ser-|mo- ni- bus|tu- is, et|vin- cas cum|ju- di- ca-|
 E16 || z32 | z28 ||[M:4/2] E12 F4- | F4 G4 A4 A4- | A2 A2 A4 A4 E4- | E4 A4 G8 | ^F4 z4 z8 | %40
w: ris.|||Ec- ce|* e- nim ve\-|* ri- ta- tem di\-|* le- xi-|sti:|
 z4 A4 _B4 c2 c2- | c2 c2 A2 A2 d2 d2 d4 | d4 c4 _B8 | A8 A8 | A4 G4 A4 A4 | G8 G16 ||[M:4/2] z24 | %47
w: in- cer- ta et|* oc- cul- ta sa- pi- en-|ti- ae tu-|ae ma-|ni- fe- sta- sti|mi- hi.||
 z28 ||[M:4/2] c8 _B8- | B4 A4 A8 | G12 E4 | F4 c4 c4 G4 | A8 E8- | E4 E4 E4 F4 | E8 z4 c4 | %55
w: |Au- di\-|* tu- i|me- o|da- bis gau- di-|um et|* lae- ti- ti-|um: et|
 d4 c4 (A4 B4) | c8 C6 C2 | C4 D6 C2 (C4- | C2 B,A, B,4) C16 || z30 | z26 ||[M:4/2] F8 E4 G4 | %62
w: ex- ul- ta\- *|bunt os- sa|hu- mi- li- a\-|* * * * ta.|||Cor mun- dum|
 A8 A4 c4- | c2 B2 (A6 ^G^F G4) | A4 E8 F4 | D4 F8 E4 | F4 A8 G4 | E4 E8 ^C4 | D8 F4 c4 | %69
w: cre- a in|* me De\- * * *|us: et spi-|ri- tum re-|ctum in- no-|va in vi-|sce- ri- bus|
 c8 c4 _B4- | B4 A4 A8 | A4 G4 G8 | G16 || z26 | z30 ||[M:4/2] E12 F4 | A8 G6 F2 | E4 E4 ^F8 | %78
w: me- is, in|* vi- sce-|ri- bus me-|is.|||Red- de|mi- hi lae-|ti- ti- am|
 A4 c4 (F3 G A2) c2 | _B8 A4 B4- | B4 A4 c4 _B4 | _B4 A4 A8 | A4 G4 G6 G2 | G16 || z22 | z22 || %86
w: sa- lu- ta\- * * ris|tu- i: et|* spi- ri- tu|prin- ci- pa-|li con- fir- ma|me.|||
[M:4/2] c8 _B8 | c8 c4 c4- | c4 d4 B4 A4 | (c2 BA B4) c2 B2 (A2 GF | G8) A4 G4 | E4 D4 E8 | %92
w: Li- be-|ra me de|* san- gui- ni-|bus * * * De- us, De\- * *|* us sa-|lu- tis me-|
 ^F4 z4 A6 A2 | G4 F8 E4 | G8 F4 F4- | F4 E8 E4 | G8 F4 E4 | D8 E16 || z26 | z28 ||[M:4/2] G12 G4 | %101
w: ae: et e-|xul- ta- bit|lin- ga me\-|* a ju-|sti- ti- am|tu- am.|||Quo- ni-|
 F4 E4 ^F4 G4 | A8 A4 G4- | G4 F4 G4 A4 | D2 F2 (G6 F2 E4) | D8 z4 A4- | A2 A2 G4 A2 A2 A4 | %107
w: am si- vo- lu-|is- ses sa\-|* cri- fi- ci-|um, de- dis\- * *|sem u\-|* ti- que: ho- lo- cau-|
 _B4 G4 G2 G2 (C4- | C2 B,A, B,2) B,2 C16 || z32 | z36 ||[M:4/2] c8 d8 | ^c4 A4 ^G2 G2 (c4- | %113
w: stis non de- le- cta\-|* * * * be- ris.|||Be- ni-|gne, be- ni- gne fac|
 c2 B2) (A6 ^G^F G2) G2 | A4 E4 G4 A4 | G4 F4 F4 G4- | G4 (F6 E2 A4) | G4 G4 A8 | z8 E8- | %119
w: * * Do\- * * * mi-|ne in bo- na|vo- lun- ta- te|* tu\- * *|a Si- on:|ut|
 E4 G4 A4 A2 (A2- | A2 GF G4) A8 | G8 ^F4 G4 | E4 E4 ^F8 | =F8 F4 G4 | G4 D4 E16 || z52 | z30 |] %127
w: * ae- di- fi- cen\-|* * * * tur|mu- ri Je-|ru- sa- lem,|mu- ri Je-|ru- sa- lem.|||
V:3
 F12 F4 | F4 F4 E4 F4- | F4 E4 F8- | F4 F4 F4 E4 | (E4 D2 C2) D4 D4 | D4 D4 E8 | C4 C8 B,4 | C16 || %8
w: Mi- se-|re- re me- i|* De- us:|* se- cun- dum|ma\- * * gnam mi-|se- ri- cor-|di- am tu-|am.|
 x38 | x20 || G8 G4 C4 | D4 D4 F8 | F4 E4 F4 D4 | G4 F4 (G2 A2 G4) | A8 F8 | F4 D4 ^C4 D4 | %16
w: ||Am- pli- us|la- va me|ab i- ni- qui-|ta- te me\- * *|a: et|a pec- ca- to|
 ^C8 (D6 =C2 | B,2) C4 B,2 C16 || x32 | x26 ||[M:4/2] E12 F4 | D8 ^C4 (F4- | F2 ED) E4 F4 A4 | %23
w: me- o *|* mun- da me.|||Ti- bi|so- li pec\-|* * * ca- vi, et|
 G4 F4 (E3 D) E2 ^F2 | G4 C4 z8 | ^C12 C4 | ^C4 D4 !courtesy!^C8 | C8 C4 F4 | D8 D4 D4 | E8 F4 A4 | %30
w: ma- lum co\- * ram te|fe- ci:|ut ju-|sti- fi- ce-|ris in ser-|mo- ni- bus|tu- is, et|
 A8 A4 D4 | B,4 C8 B,4 | C16 || x32 | x28 ||[M:4/2] ^C12 D4 | D8 E4 F4- | F2 F2 F4 F4 ^C4- | %38
w: vin- cas cum|ju- di- ca-|ris.|||Ec- ce|e- nim ve\-|* ri- ta- tis di\-|
 C4 F4 D8 | D4 F4 F4 E4 | D4 ^C4 D4 F4 | E4 D4 F6 D2 | (G2 F2) (F6 ED E2 D2) | F8 F8 | %44
w: * le- xi-|sti: in- cer- ta|et oc- cul- ta|sa- pi- en- ti-|ae * tu\- * * * *|ae ma-|
 E4 D4 C4 C2 (D2- | DC C4 B,2) C16 ||[M:4/2] x24 | x28 ||[M:4/2] F8 D8- | D4 ^C4 C8 | E8 E4 G4- | %51
w: ni- fe- sta- sti mi\-|* * * * hi.|||Au- di\-|* tu- i|me- o da\-|
 G2 F2 (F6 ED E2) E2 | F8 ^C8- | C4 ^C4 C4 D4 | ^C8 E8 | D4 E4 F8 | E8 F4 E4 | F8 E4 E4 | D8 E16 || %59
w: * bis gau\- * * * di-|um et|* lae- ti- ti-|um: et|ex- ul- ta-|bunt os- sa|hu- mi- li-|a- ta.|
 x30 | x26 ||[M:4/2] A8 G4 E4 | F8 F4 G4 | A8 (c2 BA B4) | c4 G8 A4 | G4 F4 G8 | A4 F8 D4 | %67
w: ||Cor mun- dum|cre- a in|me De\- * * *|us: et spi-|ri- tum re-|ctum in- no-|
 ^C4 C8 E4 | F8 D4 F4- | F4 E4 F4 D4- | D4 D4 C8 | C4 C8 B,4 | C16 || x26 | x30 ||[M:4/2] ^C12 D4 | %76
w: va in vi-|sce- ri- bus|* me- is, in|* vi- sce-|ri- bus me-|is.|||Red- de|
 F8 D4 E2 (D2- | D2 ^CB, C2) C2 D8 | F4 E4 D4 C2 (F2- | F2 ED E2 D2) F4 F4- | F4 D4 E4 D4 | %81
w: mi- hi lae- ti\-|* * * * ti- am|sa- lu- ta- ris tu\-|* * * * * i: et|* spi- ri- tu|
 D4 ^C4 D8 | C4 (C6 B,A,) B,2 B,2 | C16 || x22 | x22 ||[M:4/2] F8 D8 | E8 F8 | z4 ^F4 ^G4 (A4- | %89
w: prin- ci- pa-|li con\- * * fir- ma|me.|||Li- be-|ra me|de san- gui\-|
 A2 ^G^F G2) G2 A4 =F4- | F2 F2 E4 F4 D4 | ^C4 D8 C4 | D4 F6 F2 E4 | D8 A8 | D4 D4 (D8 | %95
w: * * * * ni- bus De\-|* us, De- us sa-|lu- tis me-|ae: et e- xul-|ta- bit|lin- ga me\-|
 C8) B,4 ^C4 | D8 A4 G4 | G8 G16 || x26 | x28 ||[M:4/2] E12 D4 | C6 C2 C4 D4 | F8 F4 E4- | %103
w: * a ju-|sti- ti- am|tu- am.|||Quo- ni-|am si- vo- lu-|is- ses sa\-|
 E4 D4 E6 F2- | F2 D4 E4 (D4 ^C2) | D4 F6 F2 E4 | F4 D4 (F2 ED E4) | G4 D4 E4 F2 (E2- | %108
w: * cri- fi- ci\-|* um, de- dis\- *|sem u- ti- que:|ho- lo- cau\- * * *|stis non de- le- cta\-|
 E2 DC D2) D2 E16 || x32 | x36 ||[M:4/2] E8 (F4 E2 D2) | E8 z8 | z4 A4 B4 B4 | c4 G4 E4 F4 | %115
w: * * * * be- ris.|||Be- ni\- * *|gne|fac Do- mi-|ne in bo- na|
 D8 D8 | E4 A4 G4 (F4- | F2 ED E2) E2 F8 | z8 ^C8- | C4 D4 F4 F4 | (F4 E2 D2) E8 | E8 D4 D2 (D2- | %122
w: vo- lun-|ta- te tu- a|* * * * Si- on:|ut|* ae- di- fi-|cen\- * * tur|mu- ri Je- ru\-|
 D2 ^CB, C2) C2 D8 | =C8 D2 A,2 (C4- | C2 B,A, B,2) B,2 C16 || x52 | x30 |] %127
w: * * * * sa- lem,|mu- ri Je- ru\-|* * * * sa- lem.|||
V:4
 F12 F4 | F4 F4 c4 d4 | c8 F8- | F4 F4 F4 c4 | A8 G4 G4 | G4 G4 c8 | F4 A4 G8 | C16 || %8
w: Mi- se-|re- re me- i|De- us:|* se- cun- dum|ma- gnam mi-|se- ri- cor-|di- am tu-|am.|
 F2 F2 F2 F2 F2 F2 F2 F2 F2 F2 F2 F2 F2 F2 F2 F2 G2 F4 | F2 F2 F2 F2 F2 F2 E2 C2 D4 || c8 c4 A4 | %11
w: Et se- cun- dum mul- ti- tu- di- nem mi- se- ra- ti- o- num tu- a- rum:|de- le i- ni- qui- ta- tem me- am.|Am- pli- us|
 G4 G4 F8 | F4 c4 _B4 B4 | c4 d4 c8 | F8 F8 | D4 D4 A4 _B4 | A8 D8 | G4 G4 C16 || %18
w: la- va me|ab i- ni- qui-|ta- te me-|a: et|a pec- ca- to|me- o|mun- da me.|
 F2 F2 F2 F2 F2 F2 F2 F2 F2 F2 F2 F2 F2 G2 F4 | F2 F2 F2 F2 F2 F2 F2 F2 F2 E2 C2 D4 || %20
w: Quo- ni- am i- ni- qui- ta- tem me- am e- go co- gno- sco:|et pec- ca- tum me- um con- tra me est sem- per.|
[M:4/2][K:treble-8] c12 F4 | G8 A4 d4 | c8 F4 f4 | e4 d4 (c3 B A4) | G4 F4 c4 F4 | A12 A4 | %26
w: Ti- bi|so- li pec-|ca- vi, et|ma- lum co\- * *|ram te fe- ci:|ut ju-|
 A4 D4 A8 | F8 F4 F4 | _B8 B4 G4 | c8 F4 D4 | A8 D4 D4 | G4 A4 G8 | C16 || %33
w: sti- fi- ce-|ris in ser-|mo- ni- bus|tu- is, et|vin- cas cum|ju- di- ca-|ris.|
 F2 F2 F2 F2 F2 F2 F2 F2 F2 F2 F2 F2 G2 F2 F4 | F2 F2 F2 F2 F2 F2 F2 F2 F2 F2 E2 C2 D4 || %35
w: ~Ec- ce e- nim in i- ni- qui- ta- ti- bus con- ce- ptus sum:|et in pec- ca- tis con- ce- pit me ma- ter me- a.|
[M:4/2][K:treble-8] A12 d4 | _B8 A4 F4- | F2 F2 F4 F4 A4- | A4 F4 G8 | D4 d4 d4 c4 | _B4 A4 G4 F4 | %41
w: Ec- ce|e- nim ve\-|* ri- ta- tem di\-|* le- xi-|sti: in- cer- ta|et oc- cul- ta|
 c4 d4 _B8 | _B4 A4 G8 | F8 D8 | A4 _B4 A4 F4 | G8 C16 || F2 F2 F2 F2 F2 F2 F2 F2 F2 G2 F4 | %47
w: sa- pi- en-|ti- ae tu-|ae ma-|ni- fe- sta- sti|mi- hi.|As- per- ges me hys- so- po, et mun- da- bor:|
 F2 F2 F2 F2 F2 F2 F2 F2 F2 F2 E2 C2 D4 ||[M:4/2][K:treble-8] F8 G8- | G4 A4 A8 | c12 c4 | %51
w: la- va- bis me, et su- per ni- vem de- al- ba- bor.|Au- di\-|* tu- i|me- o|
 d4 f4 c4 c4 | F8 A8- | A4 A4 A4 D4 | A8 c8 | B4 c4 d8 | c8 A8 | F4 D4 E6 F2 | G8 C16 || %59
w: da- bis gau- di-|um et|* lae- ti- ti-|um: et|ex- ul- ta-|bunt os-|sa hu- mi- li-|a- ta.|
 F2 F2 F2 F2 F2 F2 F2 F2 F2 F2 F2 F2 G2 F4 | F2 F2 F2 F2 F2 F2 F2 F2 F2 E2 C2 D4 || %61
w: A- ver- te fa- ci- em tu- am a pec- ca- tis me- is:|et o- mnes i- ni- qui- ta- tes me- as de- le.|
[M:4/2][K:treble-8] F8 c4 c4 | f8 d4 (c4 | f8) e8 | A4 c8 F4 | _B4 d4 c8 | F4 F8 G4 | A4 A8 A4 | %68
w: Cor mun- dum|cre- a in|* me|De- us: et|spi- ri- tum|re- ctum in-|va in vi-|
 d8 _B4 F4 | c8 F4 G4- | G4 D4 A8 | F4 C4 G8 | C16 || F2 F2 F2 F2 F2 F2 F2 F2 F2 F2 G2 F4 | %74
w: sce- ri- bus|me- is, in|* vi- sce-|ri- bus me-|is.|Ne pro- ji- ci- as me a fa- ci- e tu- a:|
 F2 F2 F2 F2 F2 F2 F2 F2 F2 F2 F2 E2 C2 D4 ||[M:4/2][K:treble-8] A12 F4 | F8 G4 G4 | A6 A2 D4 d4- | %78
w: et spi- ri- tum san- ctum tu- um ne au- fe- ras a me.|Red- de|mi- hi lae-|ti- ti- am sa\-|
 d4 c4 _B4 A4 | G8 F4 _B4- | B4 d4 A4 _B4 | G4 A4 D8 | A4 c4 G6 G2 | C16 || %84
w: * lu- ta- ris|tu- i: et|* spi- ri- tu|prin- ci- pa-|li con- fir- ma|me.|
 F2 F2 F2 F2 F2 F2 F2 F2 G2 F4 | F2 F2 F2 F2 F2 F2 F2 E2 C2 D4 ||[M:4/2][K:treble-8] F8 _B8 | %87
w: Do- ce- bo i- ni- quos vi- as tu- as:|et im- pi- i ad te con- ver- ten- tur.|Li- be-|
 A8 F4 f4- | f4 d4 e4 f4 | e8 A4 d4 | c8 F4 G4 | A4 _B4 A8 | D4 d6 d2 c4 | _B8 A8 | %94
w: ra me de|* san- gui- ni-|bus De- us,|De- us sa-|lu- tis me-|ae: et e- xul-|ta- bit|
 G4 G4 (D2 E2 F2 G2 | A8) E4 A4 | G8 A4 c4 | G8 C16 || F2 F2 F2 F2 F2 F2 F2 F2 F2 G2 F2 F4 | %99
w: lin- ga me\- * * *|* a ju-|sti- ti- am|tu- am.|Do- mi- ne, la- bi- a me- a a- pe- ri- es:|
 F2 F2 F2 F2 F2 F2 F2 F2 F2 F2 E2 C2 D4 ||[M:4/2][K:treble-8] c12 G4 | A6 A2 A4 G4 | F8 F4 c4- | %103
w: et os me- um an- nun- ti- a- bit lau- dem tu- am.|Quo- ni-|am si- vo- lu-|is- ses sa\-|
 c4 d4 c4 A4 | _B4 G4 A8 | D4 d6 d2 ^c4 | d4 _B4 A8 | G4 G4 c4 A4 | G6 G2 C16 || %109
w: * cri- fi- ci-|um, de- dis-|sem u- ti- que:|ho- lo- cau-|stis non de- le-|cta- be- ris.|
 F2 F2 F2 F2 F2 F2 F2 F2 F2 F2 F2 F2 F2 G2 F4 | %110
w: Sa- cri- fi- ci- um De- o spi- ri- tus con- tri- bu- la- tus:|
 F2 F2 F2 F2 F2 F2 F2 F2 F2 F2 F2 F2 F2 F2 E2 C2 D4 ||[M:4/2][K:treble-8] c8 _B8 | A8 e8 | %113
w: cor con- tri- tum et hu- mi- li- a- tum, De- us, non de- spi- ci- es.|Be- ni-|gne fac|
 f4 f4 e8 | A4 c8 F4 | G4 d4 _B4 G4 | c8 c8 | c8 F8 | z8 A8- | A4 G4 F4 F4 | _B8 A8 | c8 d4 G4 | %122
w: Do- mi- ne|in bo- na|vo- lun- ta- te|tu- a|Si- on:|ut|* ae- di- fi-|cen- tur|mu- ri Je-|
 A4 A4 D8 | F8 D4 C4 | G4 G4 C16 || %125
w: ru- sa- lem,|mu- ri Je-|ru- sa- lem.|
 F2 F2 F2 F2 F2 F2 F2 F2 F2 F2 F2 F2 F2 F4 F2 F2 F2 F2 F2 F2 F2 F2 G2 F4 | %126
w: Tunc ac- ce- pta- bis sa- cri- fi- ci- um ju- sti- ti- æ, ob- la- ti- o- nes et ho- lo- cau- sta:|
 F2 F2 F2 F2 F2 F2 F2 F2 F2 F2 F2 E2 C2 D4 |] %127
w: tunc im- po- nent su- per al- ta- re tu- um vi- tu- los.|

